X: 105
T: Ring Finger
C: B. McComiskey
N: Composed for box player Terry 
N: D/C# box players don't have to move their hands to play
N: this tune if they start 
L: 1/8
M: 4/4
R: reel
Q: 1/4=180
K: D
fded BdAB|dcde fa{b}ag|fded B2 dB|(3ABA AB Ad{e}de|
f2 dA BABd|Adfa g2 fg|afga fded|cAAB ceag :|
fd (3ddd fdad|fd (3ddd eAce|d2 fd afdA|B2 ge fage|
fd (3ddd Adfd|Adfa g2 fg|afga fded|cAAB ceag :|
